icon-themes/breeze_svg/cmd/lc_extrusiontoggle.svg

<?xml version="1.0" encoding="UTF-8" standalone="no"?>
<!-- Created with Inkscape (http://www.inkscape.org/) -->

<svg
   xmlns:dc="http://purl.org/dc/elements/1.1/"
   xmlns:cc="http://creativecommons.org/ns#"
   xmlns:rdf="http://www.w3.org/1999/02/22-rdf-syntax-ns#"
   xmlns:svg="http://www.w3.org/2000/svg"
   xmlns="http://www.w3.org/2000/svg"
   xmlns:sodipodi="http://sodipodi.sourceforge.net/DTD/sodipodi-0.dtd"
   xmlns:inkscape="http://www.inkscape.org/namespaces/inkscape"
   width="24"
   height="24"
   id="svg2"
   version="1.1"
   inkscape:version="0.48.4 r9939"
   viewBox="0 0 24 24"
   sodipodi:docname="lc_extrusiontoggle.svg">
  <defs
     id="defs4" />
  <sodipodi:namedview
     id="base"
     pagecolor="#ffffff"
     bordercolor="#666666"
     borderopacity="1.0"
     inkscape:pageopacity="0.0"
     inkscape:pageshadow="2"
     inkscape:zoom="35.576748"
     inkscape:cx="17.756818"
     inkscape:cy="11.232988"
     inkscape:document-units="px"
     inkscape:current-layer="layer1"
     showgrid="true"
     inkscape:showpageshadow="false"
     units="px"
     inkscape:window-width="1868"
     inkscape:window-height="1060"
     inkscape:window-x="50"
     inkscape:window-y="-3"
     inkscape:window-maximized="1"
     showguides="true"
     fit-margin-top="0"
     fit-margin-left="0"
     fit-margin-right="0"
     fit-margin-bottom="0"
     inkscape:snap-bbox="true"
     inkscape:snap-global="true">
    <inkscape:grid
       type="xygrid"
       id="grid4120"
       originx="1px"
       originy="0.99998262px" />
    <sodipodi:guide
       position="3,21"
       orientation="18,0"
       id="guide4126" />
    <sodipodi:guide
       position="21,21"
       orientation="0,-18"
       id="guide4132" />
    <sodipodi:guide
       position="4,20"
       orientation="16,0"
       id="guide4134" />
    <sodipodi:guide
       position="4,4"
       orientation="0,16"
       id="guide4136" />
    <sodipodi:guide
       position="20,4"
       orientation="-16,0"
       id="guide4138" />
    <sodipodi:guide
       position="20,20"
       orientation="0,-16"
       id="guide4140" />
    <sodipodi:guide
       position="20,14"
       orientation="-6,0"
       id="guide4199" />
    <sodipodi:guide
       position="20,20"
       orientation="0,-6.0000172"
       id="guide4201" />
  </sodipodi:namedview>
  <metadata
     id="metadata7">
    <rdf:RDF>
      <cc:Work
         rdf:about="">
        <dc:format>image/svg+xml</dc:format>
        <dc:type
           rdf:resource="http://purl.org/dc/dcmitype/StillImage" />
        <dc:title />
      </cc:Work>
    </rdf:RDF>
  </metadata>
  <g
     inkscape:label="Capa 1"
     inkscape:groupmode="layer"
     id="layer1"
     transform="translate(1,-1029.3622)">
    <g
       id="layer1-8"
       inkscape:label="Capa 1">
      <path
         sodipodi:nodetypes="ccccccc"
         inkscape:connector-curvature="0"
         id="rect4752"
         d="m 4,7.0000174 14,0 3,-3.0000002 0,12.9999998 -3,3 L 4,20 z"
         style="color:#000000;fill:#b3b3b3;fill-opacity:1;fill-rule:evenodd;stroke:none;stroke-width:2;marker:none;visibility:visible;display:inline;overflow:visible;enable-background:accumulate"
         transform="translate(-1,1029.3622)" />
      <path
         id="path5031-7"
         transform="translate(-1,1029.3622)"
         d="m 11,11 -3,3 2,0 0,6 2,0 0,-6 2,0 -3,-3 z"
         style="fill:#4d4d4d;fill-opacity:1;stroke:none"
         inkscape:connector-curvature="0" />
      <path
         id="rect4530-2"
         transform="translate(-1,1029.3622)"
         d="M 6.96875,4 4,6.96875 4,8.40625 4,20 l 1,0 12,0 1,0 3,-3 L 21,5 21,4.75 21,4.34375 21,4 8,4 6.96875,4 z m 0.4375,1 11.90625,0 -2,2 L 17,7 5.40625,7 l 2,-2 z M 20,5.75 l 0,10.8125 -2,2 0,-10.8125 2,-2 z M 5,8 17,8 17,8.75 17,19 5,19 5,8 z"
         style="color:#000000;fill:#4d4d4d;fill-opacity:1;fill-rule:evenodd;stroke:none;stroke-width:2;marker:none;visibility:visible;display:inline;overflow:visible;enable-background:accumulate"
         inkscape:connector-curvature="0" />
    </g>
  </g>
</svg>

<svg xmlns="http://www.w3.org/2000/svg" viewBox="0 0 24 24">
 <path 
     style="fill:#b3b3b3" 
     d="M 21 4 L 18 7 L 4 7 L 4 20 L 18 20 L 21 17 L 21 4 z "
     />
 <path 
     style="fill:#4d4d4d" 
     d="M 6.96875 4 L 4 6.96875 L 4 8.40625 L 4 20 L 5 20 L 10 20 L 12 20 L 17 20 L 18 20 L 21 17 L 21 5 L 21 4.75 L 21 4.34375 L 21 4 L 8 4 L 6.96875 4 z M 7.40625 5 L 19.3125 5 L 17.3125 7 L 17 7 L 5.40625 7 L 7.40625 5 z M 20 5.75 L 20 16.5625 L 18 18.5625 L 18 7.75 L 20 5.75 z M 5 8 L 17 8 L 17 8.75 L 17 19 L 12 19 L 12 14 L 14 14 L 11 11 L 8 14 L 10 14 L 10 19 L 5 19 L 5 8 z "
     />
 </svg>
